X: 21550
T: Kiley's
R: reel
M: 4/4
K: Amajor
Aceg agfe|dcBA GB E2|B2 GB zG B2|cBAc BA GB|
Aceg agfe|dcBA GBE2|B2GBz E GB|zAGB A2E2:|
(4A/B/c/d/ e2 ce zc e2|B2 GBz G B2|e2 ce zc e2|f2dfz d f2|
Aceg agae|fdBc A4:|

